**harm	**harte	**timestamp	**phrase	**leadinstrument	**kern
*M4/4	*M4/4	*	*	*	*
*E:	*E:	*	*	*	*E:
1r;	N	0	.	r	1r;
=1	=1	=1	=1	=1	=1
*>A_verse	*>A_verse	*>A_verse	*>A_verse	*>A_verse	*>A_verse
1-VII	D:maj	0.221	newline	voice	1D 1f# 1a
=2	=2	=2	=2	=2	=2
1-VII	D:maj	2.209	.	voice	1D 1f# 1a
=3	=3	=3	=3	=3	=3
1IV	A:maj	4.197	.	voice	1A 1cc# 1ee
=4	=4	=4	=4	=4	=4
1IV	A:maj	6.185	.	voice	1A 1cc# 1ee
=5	=5	=5	=5	=5	=5
1-VII	D:maj	8.173	newline	voice	1D 1f# 1a
=6	=6	=6	=6	=6	=6
1-VII	D:maj	10.185	.	voice	1D 1f# 1a
=7	=7	=7	=7	=7	=7
1IV	A:maj	12.196	.	voice	1A 1cc# 1ee
=8	=8	=8	=8	=8	=8
1IV	A:maj	14.208	.	voice	1A 1cc# 1ee
=9	=9	=9	=9	=9	=9
1I	E:maj	16.219	newline	voice	1E 1g# 1b
=10	=10	=10	=10	=10	=10
1I	E:maj	18.213	.	voice	1E 1g# 1b
=11	=11	=11	=11	=11	=11
1-VII	D:maj	20.207	.	voice	1D 1f# 1a
=12	=12	=12	=12	=12	=12
1-VII	D:maj	22.201	.	voice	1D 1f# 1a
=13	=13	=13	=13	=13	=13
1IV	A:maj	24.195	newline	voice	1A 1cc# 1ee
=14	=14	=14	=14	=14	=14
1IV	A:maj	26.192	.	voice	1A 1cc# 1ee
=15	=15	=15	=15	=15	=15
1V	B:maj	28.189	.	voice	1B 1dd# 1ff#
=16	=16	=16	=16	=16	=16
1V	B:maj	30.186	.	voice	1B 1dd# 1ff#
=17	=17	=17	=17	=17	=17
*>B_chorus	*>B_chorus	*>B_chorus	*>B_chorus	*>B_chorus	*>B_chorus
1I	E:maj	32.183	newline	voice	1E 1g# 1b
=18	=18	=18	=18	=18	=18
2.-III	G:maj	34.139	.	voice	2G 2b 2dd
4IV	A:maj	35.606	.	voice	4A 4cc# 4ee
=19	=19	=19	=19	=19	=19
1I	E:maj	36.095	.	voice	1E 1g# 1b
=20	=20	=20	=20	=20	=20
2.-III	G:maj	38.052	.	voice	2G 2b 2dd
4IV	A:maj	39.519	.	voice	4A 4cc# 4ee
=21	=21	=21	=21	=21	=21
1I	E:maj	40.008	newline	voice	1E 1g# 1b
=22	=22	=22	=22	=22	=22
2.-III	G:maj	41.97	.	voice	2G 2b 2dd
4IV	A:maj	43.442	.	voice	4A 4cc# 4ee
=23	=23	=23	=23	=23	=23
1V	B:maj	43.932	.	voice	1B 1dd# 1ff#
=24	=24	=24	=24	=24	=24
1V	B:maj	45.894	.	voice	1B 1dd# 1ff#
=25	=25	=25	=25	=25	=25
*>A2_verse	*>A2_verse	*>A2_verse	*>A2_verse	*>A2_verse	*>A2_verse
1-VII	D:maj	47.856	newline	voice	1D 1f# 1a
=26	=26	=26	=26	=26	=26
1-VII	D:maj	49.894	.	voice	1D 1f# 1a
=27	=27	=27	=27	=27	=27
1IV	A:maj	51.931	.	voice	1A 1cc# 1ee
=28	=28	=28	=28	=28	=28
1IV	A:maj	53.969	.	voice	1A 1cc# 1ee
=29	=29	=29	=29	=29	=29
1-VII	D:maj	56.007	newline	voice	1D 1f# 1a
=30	=30	=30	=30	=30	=30
1-VII	D:maj	58.015	.	voice	1D 1f# 1a
=31	=31	=31	=31	=31	=31
1IV	A:maj	60.024	.	voice	1A 1cc# 1ee
=32	=32	=32	=32	=32	=32
1IV	A:maj	62.032	.	voice	1A 1cc# 1ee
=33	=33	=33	=33	=33	=33
1I	E:maj	64.041	newline	voice	1E 1g# 1b
=34	=34	=34	=34	=34	=34
1I	E:maj	66.033	.	voice	1E 1g# 1b
=35	=35	=35	=35	=35	=35
1-VII	D:maj	68.026	.	voice	1D 1f# 1a
=36	=36	=36	=36	=36	=36
1-VII	D:maj	70.019	.	voice	1D 1f# 1a
=37	=37	=37	=37	=37	=37
1IV	A:maj	72.012	newline	voice	1A 1cc# 1ee
=38	=38	=38	=38	=38	=38
1IV	A:maj	73.99	.	voice	1A 1cc# 1ee
=39	=39	=39	=39	=39	=39
1V	B:maj	75.967	.	voice	1B 1dd# 1ff#
=40	=40	=40	=40	=40	=40
1V	B:maj	77.945	.	voice	1B 1dd# 1ff#
=41	=41	=41	=41	=41	=41
*>B_chorus	*>B_chorus	*>B_chorus	*>B_chorus	*>B_chorus	*>B_chorus
1I	E:maj	79.923	newline	voice	1E 1g# 1b
=42	=42	=42	=42	=42	=42
2.-III	G:maj	81.893	.	voice	2G 2b 2dd
4IV	A:maj	83.371	.	voice	4A 4cc# 4ee
=43	=43	=43	=43	=43	=43
1I	E:maj	83.864	.	voice	1E 1g# 1b
=44	=44	=44	=44	=44	=44
2.-III	G:maj	85.834	.	voice	2G 2b 2dd
4IV	A:maj	87.312	.	voice	4A 4cc# 4ee
=45	=45	=45	=45	=45	=45
1I	E:maj	87.804	newline	voice	1E 1g# 1b
=46	=46	=46	=46	=46	=46
2.-III	G:maj	89.764	.	voice	2G 2b 2dd
4IV	A:maj	91.234	.	voice	4A 4cc# 4ee
=47	=47	=47	=47	=47	=47
1V	B:maj	91.724	.	voice	1B 1dd# 1ff#
=48	=48	=48	=48	=48	=48
1V	B:maj	93.683	.	voice	1B 1dd# 1ff#
=49	=49	=49	=49	=49	=49
*>B_chorus	*>B_chorus	*>B_chorus	*>B_chorus	*>B_chorus	*>B_chorus
1I	E:maj	95.643	newline	voice	1E 1g# 1b
=50	=50	=50	=50	=50	=50
2.-III	G:maj	97.608	.	voice	2G 2b 2dd
4IV	A:maj	99.082	.	voice	4A 4cc# 4ee
=51	=51	=51	=51	=51	=51
1I	E:maj	99.573	.	voice	1E 1g# 1b
=52	=52	=52	=52	=52	=52
2.-III	G:maj	101.538	.	voice	2G 2b 2dd
4IV	A:maj	103.012	.	voice	4A 4cc# 4ee
=53	=53	=53	=53	=53	=53
1I	E:maj	103.503	newline	voice	1E 1g# 1b
=54	=54	=54	=54	=54	=54
2.-III	G:maj	105.485	.	voice	2G 2b 2dd
4IV	A:maj	106.972	.	voice	4A 4cc# 4ee
=55	=55	=55	=55	=55	=55
1V	B:maj	107.468	.	voice	1B 1dd# 1ff#
=56	=56	=56	=56	=56	=56
1V	B:maj	109.45	.	voice	1B 1dd# 1ff#
=57	=57	=57	=57	=57	=57
*>A2_verse	*>A2_verse	*>A2_verse	*>A2_verse	*>A2_verse	*>A2_verse
1-VII	D:maj	111.433	newline	voice	1D 1f# 1a
=58	=58	=58	=58	=58	=58
1-VII	D:maj	113.479	.	voice	1D 1f# 1a
=59	=59	=59	=59	=59	=59
1IV	A:maj	115.525	.	voice	1A 1cc# 1ee
=60	=60	=60	=60	=60	=60
1IV	A:maj	117.571	.	voice	1A 1cc# 1ee
=61	=61	=61	=61	=61	=61
1-VII	D:maj	119.618	newline	voice	1D 1f# 1a
=62	=62	=62	=62	=62	=62
1-VII	D:maj	121.646	.	voice	1D 1f# 1a
=63	=63	=63	=63	=63	=63
1IV	A:maj	123.675	.	voice	1A 1cc# 1ee
=64	=64	=64	=64	=64	=64
1IV	A:maj	125.704	.	voice	1A 1cc# 1ee
=65	=65	=65	=65	=65	=65
1I	E:maj	127.733	newline	voice	1E 1g# 1b
=66	=66	=66	=66	=66	=66
1I	E:maj	129.719	.	voice	1E 1g# 1b
=67	=67	=67	=67	=67	=67
1-VII	D:maj	131.704	.	voice	1D 1f# 1a
=68	=68	=68	=68	=68	=68
1-VII	D:maj	133.69	.	voice	1D 1f# 1a
=69	=69	=69	=69	=69	=69
1IV	A:maj	135.675	newline	voice	1A 1cc# 1ee
=70	=70	=70	=70	=70	=70
1IV	A:maj	137.657	.	voice	1A 1cc# 1ee
=71	=71	=71	=71	=71	=71
1V	B:maj	139.639	.	voice	1B 1dd# 1ff#
=72	=72	=72	=72	=72	=72
1V	B:maj	141.621	.	voice	1B 1dd# 1ff#
=73	=73	=73	=73	=73	=73
*>B_chorus	*>B_chorus	*>B_chorus	*>B_chorus	*>B_chorus	*>B_chorus
1I	E:maj	143.603	newline	voice	1E 1g# 1b
=74	=74	=74	=74	=74	=74
2.-III	G:maj	145.559	.	voice	2G 2b 2dd
4IV	A:maj	147.027	.	voice	4A 4cc# 4ee
=75	=75	=75	=75	=75	=75
1I	E:maj	147.516	.	voice	1E 1g# 1b
=76	=76	=76	=76	=76	=76
2.-III	G:maj	149.472	.	voice	2G 2b 2dd
4IV	A:maj	150.94	.	voice	4A 4cc# 4ee
=77	=77	=77	=77	=77	=77
1I	E:maj	151.429	newline	voice	1E 1g# 1b
=78	=78	=78	=78	=78	=78
2.-III	G:maj	153.391	.	voice	2G 2b 2dd
4IV	A:maj	154.863	.	voice	4A 4cc# 4ee
=79	=79	=79	=79	=79	=79
1V	B:maj	155.353	.	voice	1B 1dd# 1ff#
=80	=80	=80	=80	=80	=80
1V	B:maj	157.315	.	voice	1B 1dd# 1ff#
=81	=81	=81	=81	=81	=81
*>B_chorus	*>B_chorus	*>B_chorus	*>B_chorus	*>B_chorus	*>B_chorus
1I	E:maj	159.277	newline	voice	1E 1g# 1b
=82	=82	=82	=82	=82	=82
2.-III	G:maj	161.251	.	voice	2G 2b 2dd
4IV	A:maj	162.731	.	voice	4A 4cc# 4ee
=83	=83	=83	=83	=83	=83
1I	E:maj	163.225	.	voice	1E 1g# 1b
=84	=84	=84	=84	=84	=84
2.-III	G:maj	165.198	.	voice	2G 2b 2dd
4IV	A:maj	166.679	.	voice	4A 4cc# 4ee
=85	=85	=85	=85	=85	=85
1I	E:maj	167.172	newline	voice	1E 1g# 1b
=86	=86	=86	=86	=86	=86
2.-III	G:maj	169.134	.	voice	2G 2b 2dd
4IV	A:maj	170.606	.	voice	4A 4cc# 4ee
=87	=87	=87	=87	=87	=87
1V	B:maj	171.096	.	voice	1B 1dd# 1ff#
=88	=88	=88	=88	=88	=88
1V	B:maj	173.058	.	voice	1B 1dd# 1ff#
=89	=89	=89	=89	=89	=89
*>B_outro	*>B_outro	*>B_outro	*>B_outro	*>B_outro	*>B_outro
1I	E:maj	175.02	newline	voice	1E 1g# 1b
=90	=90	=90	=90	=90	=90
2.-III	G:maj	176.99	.	voice	2G 2b 2dd
4IV	A:maj	178.467	.	voice	4A 4cc# 4ee
=91	=91	=91	=91	=91	=91
1I	E:maj	178.96	.	voice	1E 1g# 1b
=92	=92	=92	=92	=92	=92
2.-III	G:maj	180.929	.	voice	2G 2b 2dd
4IV	A:maj	182.407	.	voice	4A 4cc# 4ee
=93	=93	=93	=93	=93	=93
1I	E:maj	182.899	newline	voice	1E 1g# 1b
=94	=94	=94	=94	=94	=94
2.-III	G:maj	184.856	.	voice	2G 2b 2dd
4IV	A:maj	186.325	.	voice	4A 4cc# 4ee
=95	=95	=95	=95	=95	=95
1V	B:maj	186.814	.	voice	1B 1dd# 1ff#
=96	=96	=96	=96	=96	=96
1V	B:maj	188.771	.	voice	1B 1dd# 1ff#
=97	=97	=97	=97	=97	=97
1I	E:maj	190.729	newline	voice	1E 1g# 1b
=98	=98	=98	=98	=98	=98
2.-III	G:maj	192.7	.	voice	2G 2b 2dd
4IV	A:maj	194.178	.	voice	4A 4cc# 4ee
=99	=99	=99	=99	=99	=99
1I	E:maj	194.67	.	voice	1E 1g# 1b
=100	=100	=100	=100	=100	=100
2.-III	G:maj	196.641	.	voice	2G 2b 2dd
4IV	A:maj	198.119	.	voice	4A 4cc# 4ee
=101	=101	=101	=101	=101	=101
1I	E:maj	198.612	newline	fadeout	1E 1g# 1b
=102	=102	=102	=102	=102	=102
2.-III	G:maj	200.568	.	fadeout	2G 2b 2dd
4IV	A:maj	202.035	.	fadeout	4A 4cc# 4ee
=103	=103	=103	=103	=103	=103
1V	B:maj	202.524	.	fadeout	1B 1dd# 1ff#
=104	=104	=104	=104	=104	=104
1V	B:maj	204.481	.	fadeout	1B 1dd# 1ff#
=105	=105	=105	=105	=105	=105
1I	E:maj	206.437	newline	fadeout	1E 1g# 1b
=106	=106	=106	=106	=106	=106
2.-III	G:maj	208.409	.	fadeout	2G 2b 2dd
4IV	A:maj	209.888	.	fadeout	4A 4cc# 4ee
=107	=107	=107	=107	=107	=107
1I	E:maj	210.381	.	fadeout	1E 1g# 1b
=108	=108	=108	=108	=108	=108
2.-III	G:maj	212.354	.	fadeout	2G 2b 2dd
4IV	A:maj	213.833	.	fadeout	4A 4cc# 4ee
=109	=109	=109	=109	=109	=109
1I	E:maj	214.326	newline	voice	1E 1g# 1b
=110	=110	=110	=110	=110	=110
2.-III	G:maj	216.287	.	voice	2G 2b 2dd
4IV	A:maj	217.757	.	voice	4A 4cc# 4ee
=111	=111	=111	=111	=111	=111
1V	B:maj	218.247	.	voice	1B 1dd# 1ff#
=112	=112	=112	=112	=112	=112
1V	B:maj	220.208	.	voice	1B 1dd# 1ff#
1r;	N	231.727	.	r	1r;
1r;	N	234.136	.	r	1r;
*-	*-	*-	*-	*-	*-
!!!OTL: Heartaches
!!!COC: Bachman-Turner Overdrive
!!!BillboardChartDate: 1979/03/10
!!!BillboardPeak: 60
!!!BillboardWeeksOnChart: 7
!!!SampleTargetRank: 81
!!!SampleActualRank: 82
!!!SampleID#: 0699
!!!RDF**harmony: **recip + pitch class of root + harmonic quality
!!!RDF**harte: Chris Harte's syntax, used by MIREX
!!!RDF**phrase: newline = linebreak in original McGill transcription
!!!RDF**timestamp: McGill audio timestamp in seconds
!!!RDF**leadinstrument: original McGill primary instrumentation annotation
!!!RDT: 2017/01/12/
!!!ENC: Nathaniel Condit-Schultz
!!!EST: Awating manual error checking and editing.
